static/assets/images/networks/arbitrum-mono.svg

<svg width="232" height="256" viewBox="0 0 232 256" fill="none" xmlns="http://www.w3.org/2000/svg">
<path d="M135.195 147.453L122.525 181.436C122.152 182.378 122.152 183.426 122.525 184.368L144.282 242.858L169.461 228.614L139.258 147.453C138.562 145.568 135.89 145.568 135.195 147.453Z" fill="black"/>
<path d="M160.531 90.2728C159.836 88.388 157.163 88.388 156.469 90.2728L143.799 124.256C143.425 125.199 143.425 126.246 143.799 127.189L179.455 222.96L204.633 208.717L160.531 90.2728Z" fill="black"/>
<path d="M115.788 15.8658C116.429 15.8658 117.018 16.0229 117.605 16.3371L213.614 70.637C214.737 71.2653 215.432 72.4173 215.432 73.674V182.274C215.432 183.53 214.737 184.682 213.614 185.31L117.605 239.663C117.071 239.977 116.429 240.134 115.788 240.134C115.147 240.134 114.558 239.977 113.971 239.663L18.015 185.363C16.8924 184.734 16.1975 183.582 16.1975 182.326V73.674C16.1975 72.4173 16.8924 71.2653 18.015 70.637L114.024 16.3371C114.558 16.0229 115.2 15.8658 115.788 15.8658ZM115.788 0C112.367 0 108.945 0.89016 105.898 2.61812L9.88957 56.918C3.79545 60.3739 0 66.7622 0 73.674V182.274C0 189.186 3.79545 195.626 9.88957 199.082L105.898 253.382C108.945 255.11 112.367 256 115.788 256C119.209 256 122.631 255.11 125.678 253.382L221.686 199.082C227.834 195.626 231.576 189.238 231.576 182.274V73.674C231.576 66.7622 227.781 60.3215 221.686 56.8656L125.731 2.61812C122.631 0.89016 119.209 0 115.788 0Z" fill="black"/>
<path d="M52.3417 223.064L61.1621 199.397L78.9098 213.849L62.3381 228.719L52.3417 223.064Z" fill="black"/>
<path d="M107.713 65.9238H83.3905C81.573 65.9238 79.9153 67.0234 79.3275 68.699L27.1534 208.821L52.3317 223.063L109.798 68.7514C110.279 67.39 109.263 65.9238 107.713 65.9238Z" fill="black"/>
<path d="M150.314 65.9238H125.991C124.173 65.9238 122.516 67.0234 121.928 68.699L62.3234 228.718L87.5014 242.962L152.345 68.8038C152.879 67.39 151.811 65.9238 150.314 65.9238Z" fill="black"/>
</svg>

<svg xmlns="http://www.w3.org/2000/svg" fill="none" viewBox="0 0 232 256"><path fill="#000" d="m135.195 147.453-12.67 33.983a3.98 3.98 0 0 0 0 2.932l21.757 58.49 25.179-14.244-30.203-81.161c-.696-1.885-3.368-1.885-4.063 0M160.531 90.273c-.695-1.885-3.368-1.885-4.062 0l-12.67 33.983a3.97 3.97 0 0 0 0 2.933l35.656 95.771 25.178-14.243z"/><path fill="#000" d="M115.788 15.866c.641 0 1.23.157 1.817.471l96.009 54.3c1.123.628 1.818 1.78 1.818 3.037v108.6c0 1.256-.695 2.408-1.818 3.036l-96.009 54.353a3.6 3.6 0 0 1-1.817.471c-.641 0-1.23-.157-1.817-.471l-95.956-54.3c-1.123-.629-1.817-1.781-1.817-3.037V73.674c0-1.257.694-2.409 1.817-3.037l96.009-54.3a3.56 3.56 0 0 1 1.764-.471m0-15.866c-3.421 0-6.843.89-9.89 2.618L9.89 56.918C3.795 60.374 0 66.762 0 73.674v108.6c0 6.912 3.795 13.352 9.89 16.808l96.008 54.3a20.1 20.1 0 0 0 9.89 2.618c3.421 0 6.843-.89 9.89-2.618l96.008-54.3c6.148-3.456 9.89-9.844 9.89-16.808v-108.6c0-6.912-3.795-13.353-9.89-16.808L125.731 2.618C122.631.89 119.209 0 115.788 0"/><path fill="#000" d="m52.342 223.064 8.82-23.667 17.748 14.452-16.572 14.87zM107.713 65.924H83.391c-1.818 0-3.476 1.1-4.064 2.775L27.154 208.821l25.179 14.242 57.466-154.312c.481-1.361-.535-2.827-2.085-2.827"/><path fill="#000" d="M150.314 65.924h-24.323c-1.818 0-3.475 1.1-4.063 2.775L62.323 228.718l25.178 14.244 64.844-174.158c.534-1.414-.534-2.88-2.031-2.88"/></svg>
